!!!OTL: SEHT WIE DIE TAGE SICH SONNIG VERKLAEREN
!!!ARE: Europa, Mitteleuropa, Deutschland
!!!SCT: F1077
!!!YEM: Copyright 1995, estate of Helmut Schaffrath.
**kern
*ICvox
*Ivox
*M3/8
*k[f#]
*G:
=1
{8b
16dd
16cc
16a
16f#
=2
16g
16b
16dd
16cc}
{16a
16f#
=3
16g
16b
16dd
16b
16gg
16dd
=4
8cc
8b
8r}
=5
{8a
16g#
16b
16g#
16e
=6
8a
16g#
16b}
{16g#
16e
=7
16a
16ee
16dd
16cc
16b
16a
=8
8g
8f#
8r}
=9
{8b
16dd
16cc
16a
16f#
=10
16g
16b
16dd
16cc}
{16a
16f#
=11
16g
16b
16dd
16b
16a
16g
=12
8cc
8b
8r}
=13
{8a
16a
16b
16cc#
16dd
=14
8a
16a
16b}
{16cc#
16dd
=15
16b
16ee
8ee
8cc#
=16
4dd
8r}
=17
{16d
16dd
8.dd
16dd
=18
16dd
16cc#
8.cc}
{16ee
=19
16ee
16b-
8.b-
16g
=20
16f#
16a
8a
8r}
=21
{8cc
8.cc
16cc
=22
16cc
16b
8.b}
{16g
=23
8.dd
16cc
8b
=24
4a
8r}
=25
{8b
16dd
16cc
16a
16f#
=26
16g
16b
16dd
16cc}
{16a
16f#
=27
16g
16b
16dd
16b
16gg
16dd
=28
8cc
8b
8r}
=29
{8ee
8ee
8ee
=30
8.ee
16dd}
{8cc
=31
16b
16dd
8cc
8a
=32
4g
8r}
==
!!!AGN: Trost - Lied
!!!ONB: ESAC (Essen Associative Code) Database: FINK
!!!AMT: simple triple
!!!AIN: vox
!!!EED: Helmut Schaffrath
!!!EEV: 1.0
*-
